X:311
T: Air by Carolan
N: O'Farrell's Pocket Companion v.4 (Sky ed. p.166)
N: "Irish"
M: C
L: 1/8
Q: 120 % "slow"
R: blank
K: Am
e>d| c2 Bc A2 e>d| c2Bc A3e| f2e2d2 ef| gfed e3B|
cedc BdcB| cABG E2 ed| cBcA BdcB| A4A2 :|
ef/g/| a3b agab| c'2c2c2b2| c'>bag fedc| BgdB G3B|
c2cc d2d2| edeg a3a| g2e2 fagf| e2A2 d3B|
c3B ABcd| e2E2E2 ed| cBcA GEGA/B/|A4A2 :|
